!!!OTL: Schreinerlied (2-50) S. 160
!!!id: P0923
**kern
*clefG2
*k[f#]
*G:
{4d
=1
4g
8g
8g
8g
4b
8b
=2
4a
4g
4f#}
=3
{4d
=4
4g
4g
8g
8a
8b
8g
=5
2a}
4r
=6
{8b
8cc
=7
4.dd
8ee
8a
8b
8cc
8dd
=8
4.b
8a
4g}
=9
{8g
8g
=10
4a
4cc
8f#
8g
8a
8b
=11
2g}
4r
==
*-
!!!minrhy: 8
!!!meters: 4/4 ]  ZZ[4
!!!cut: Schreinerlied (2-50) S. 160
!!!reg: Lothringen
!!!trd: PINCK, Louis: Verklingende Weisen, Bd 2, Metz 1928
!!!rhy1: X_  X_XXXX_X  X_X_X_
!!!rhy2: X_  X_X_XXXX  X__0_
!!!key: P0923  08  G 4/4 ]  ZZ[4
!!!mod: HEPTATONIK IONISCH]  AMBITUS[9
!!!kad: -7211
!!!akz: 112-7_112_5231_2-71_
!!!fot: 'a__av_as"b__
!!!for: 'a__b__c__bv_
!!!fok: '^a_/__^d_^__
!! PHRAS[AUFTAKTIG]
!!!fkt: Arbeits-, Berufslied
!! LOTH VKL
!! PR[17] 2K[7] 2G[17] 3K[1] 3G[1] 4A[4] 4Ü[0] 5A[0] 6K[1] 6G[1]
!! 7K[0] 7G[0] 8A[1] MEHR[0] SI[35] ABS[71] SR[24] SP[11]
!! ST[23] 2k[13] 2g[28] 3k[1] 3g[3] 4d[1] 4ü[0] 5d[0] 6k[0] 6g[0]
!! 7k[1] 7g[0] 8d[0] mehr[0] si[48] dm[-13] sr[41] sp[7]
!! 1F[16] 2F[50] 3F[16] 4F[1] LF[0] 2P[14] 3P[3] 4P[0] TRI[0] DF[6] AB[74]
!! TF[0] U3K[0] U3[0] U4[0] U4Ü[0] U5[10] U6K[0] U6[8] U7K[0] U7[13]
!! N1[17] N2K[0] N2[25] N3K[0] N3[13] N4[8] N4Ü[0] N5[6] N6K[0] N6[1]
!!!n7k: 0] N7[0] O1[0] O2K[0] O2[0] O3K[0] O3[0] HÖ[0
